X:1
T:Title
%%score { 1 | 2 }
L:1/8
M:3/4
K:Eb
V:1 treble nm="Grand Piano"
V:2 bass 
V:1
 z2 z[Q:1/4=100] E G[GB] | [GB]3 [Ac] [GB][B,EG] | [A,DF]2 [G,E][EGB] ce | e4 c2 | [GB]3 E G[GB] | %5
 [GB]3 [Ac] [GB][EG] | [DF]2 EE GB | [EG]4 [DF]2 |[M:3/8] E3 | EG[GB] |[M:3/4] [GB]4 [Ac]2 | %11
 [GB]3 [GB] ce | e4 c2 | [GB]3 E G[GB] | [GB]3 [Ac] [GB][EG] | [DF]2 EE GB | [EG]4 [DF]2 | %17
[M:3/8] E3 |] %18
V:2
 z2 z [E,G,] [E,B,E][E,E] | [E,E]3 [E,E] [E,E]E, | B,,2 E,E,[K:treble] [A,EA][A,CA] | %3
 [A,CA]4 [A,EA]2 | [E,E]3 [E,G,] [E,B,E][E,E] | [E,E]3 [E,E] [E,E][E,B,] | %6
 [B,,A,]2 [E,G,][E,G,] [E,B,E][E,G,E] | [B,,B,]4 [B,,A,]2 |[M:3/8] [E,G,]3 | [E,G,][E,B,E][E,E] | %10
[M:3/4] [E,E]4 [E,E]2 | [E,E]3 [E,E][K:treble] [A,EA][A,CA] | [A,CA]4 [A,EA]2 | %13
 [E,E]3 [E,G,] [B,E][E,E] | [E,E]3 [E,E] [E,E][E,B,] | [B,,A,]2 [E,G,][E,G,] [E,B,E][E,G,E] | %16
 [B,,B,]4 [B,,A,]2 |[M:3/8] [E,G,]3 |] %18

